icons/project-symlink-16.svg

<svg width="16" height="16" viewBox="0 0 16 16" fill="none" xmlns="http://www.w3.org/2000/svg">
<g clip-path="url(#clip0_8245_104363)">
<path fill-rule="evenodd" clip-rule="evenodd" d="M0 1.75C0 0.783502 0.783502 0 1.75 0H14.25C15.2165 0 16 0.783502 16 1.75V14.25C16 15.2165 15.2165 16 14.25 16H5.75C5.33579 16 5 15.6642 5 15.25C5 14.8358 5.33579 14.5 5.75 14.5H14.25C14.3881 14.5 14.5 14.3881 14.5 14.25V6.5H1.5V8.25C1.5 8.66421 1.16421 9 0.75 9C0.335786 9 0 8.66421 0 8.25V1.75ZM1.5 5H5V1.5H1.75C1.61193 1.5 1.5 1.61193 1.5 1.75V5ZM6.5 5H14.5V1.75C14.5 1.61193 14.3881 1.5 14.25 1.5H6.5V5Z" fill="black"/>
<path d="M1.5 13.7374C1.5 12.4899 2.51488 11.4807 3.76245 11.4876L3.99997 11.489L3.99997 13.4267C3.99997 13.645 4.26012 13.7584 4.42009 13.6099L7.30268 10.9332C7.4092 10.8343 7.4092 10.6657 7.30268 10.5668L4.42008 7.8901C4.26012 7.74156 3.99997 7.85501 3.99997 8.0733L3.99997 9.98894L3.77075 9.98767C1.69169 9.97616 0 11.6581 0 13.7374V14.75C0 15.1642 0.335786 15.5 0.75 15.5C1.16421 15.5 1.5 15.1642 1.5 14.75V13.7374Z" fill="black"/>
</g>
<defs>
<clipPath id="clip0_8245_104363">
<rect width="16" height="16" fill="white"/>
</clipPath>
</defs>
</svg>

<svg xmlns="http://www.w3.org/2000/svg" width="16" height="16" viewBox="0 0 16 16"><path fill-rule="evenodd" d="M0 1.75C0 .784.784 0 1.75 0h12.5C15.216 0 16 .784 16 1.75v12.5A1.75 1.75 0 0114.25 16h-8.5a.75.75 0 010-1.5h8.5a.25.25 0 00.25-.25V6.5h-13v1.75a.75.75 0 01-1.5 0v-6.5zM1.5 5H5V1.5H1.75a.25.25 0 00-.25.25V5zm5 0h8V1.75a.25.25 0 00-.25-.25H6.5V5z"/><path d="M1.5 13.737a2.25 2.25 0 012.262-2.25L4 11.49v1.938c0 .218.26.331.42.183l2.883-2.677a.25.25 0 000-.366L4.42 7.89a.25.25 0 00-.42.183V9.99l-.23-.001A3.75 3.75 0 000 13.738v1.012a.75.75 0 001.5 0v-1.013z"/></svg>
